picto/paper-recycling-framed.svg

<svg class="color-immutable" width="30" height="30" viewBox="0 0 30 30" fill="none" xmlns="http://www.w3.org/2000/svg"><path d="M30 0H0V30H30V0Z" fill="#2D327D"/><path d="M25.5 3C26.325 3 27 3.675 27 4.5V25.5C27 26.325 26.325 27 25.5 27H4.5C3.675 27 3 26.325 3 25.5V4.5C3 3.675 3.675 3 4.5 3H25.5ZM25.5 2.625H4.5C3.46613 2.625 2.625 3.46613 2.625 4.5V25.5C2.625 26.5339 3.46613 27.375 4.5 27.375H25.5C26.5339 27.375 27.375 26.5339 27.375 25.5V4.5C27.375 3.46613 26.5339 2.625 25.5 2.625Z" fill="white"/><path fill-rule="evenodd" clip-rule="evenodd" d="M7.07946 12.1165C7.06468 12.0913 7.04976 12.0662 7.03506 12.041C6.70566 11.4746 6.37611 10.9083 6.04693 10.3417C5.98596 10.2368 5.98303 10.1327 6.04618 10.0253C6.22011 9.72982 6.39141 9.43282 6.56368 9.13642C6.56788 9.12922 6.57148 9.1218 6.57741 9.1107C6.39898 9.0054 6.22123 8.90055 6.04348 8.7957C6.04386 8.79367 6.04423 8.79165 6.04468 8.7897C6.05346 8.7897 6.06231 8.7897 6.07108 8.7897C6.63223 8.7897 7.19338 8.78977 7.75453 8.78947C7.77328 8.78947 7.78693 8.79135 7.79811 8.81062C8.08528 9.30427 8.37321 9.7974 8.66098 10.2907C8.66406 10.296 8.66676 10.3015 8.67441 10.3159C8.48863 10.2089 8.31096 10.1066 8.13171 10.0034C8.12451 10.0153 8.11851 10.025 8.11281 10.0349C7.78978 10.594 7.46706 11.1533 7.14358 11.7121C7.07346 11.8333 7.04751 11.9599 7.08366 12.097C7.08523 12.103 7.08493 12.1093 7.08546 12.1156C7.08336 12.1159 7.08141 12.1162 7.07946 12.1165Z" fill="white"/><path fill-rule="evenodd" clip-rule="evenodd" d="M12.0722 7.07161C12.2508 6.96848 12.4265 6.86708 12.6111 6.7605C12.6035 6.7767 12.6005 6.78465 12.5963 6.79193C12.3164 7.28003 12.0364 7.76813 11.7567 8.25638C11.7481 8.27145 11.7392 8.27881 11.7204 8.27888C11.1497 8.28038 10.5791 8.28255 10.0085 8.28458C10.0034 8.28458 9.99827 8.28405 9.98327 8.2833C10.166 8.17635 10.3411 8.07383 10.5185 7.96988C10.5113 7.9569 10.5054 7.94603 10.4993 7.9353C10.1807 7.37963 9.86154 6.82433 9.54392 6.26813C9.47162 6.1416 9.37382 6.05026 9.22959 6.01456C9.22584 6.01366 9.22254 6.01073 9.21167 6.00458C9.23019 6.00458 9.241 6.00458 9.2518 6.00458C9.89612 6.00293 10.5405 6.00098 11.1848 5.99993C11.2435 5.99986 11.3028 6.00031 11.3606 6.00893C11.4431 6.02131 11.4992 6.07388 11.5399 6.14505C11.7137 6.4491 11.8881 6.75278 12.0623 7.0566C12.065 7.06118 12.0681 7.06538 12.0722 7.07161Z" fill="white"/><path fill-rule="evenodd" clip-rule="evenodd" d="M10.8796 12.9481C10.8796 13.1563 10.8796 13.3603 10.8796 13.5644C10.877 13.5651 10.8744 13.5658 10.8717 13.5665C10.8669 13.5595 10.8615 13.5529 10.8573 13.5457C10.5769 13.059 10.2967 12.5722 10.0162 12.0856C10.0078 12.0711 10.0042 12.0601 10.0139 12.0431C10.3 11.5452 10.5855 11.0469 10.8711 10.5487C10.8726 10.546 10.8749 10.5438 10.8802 10.537C10.8802 10.7455 10.8802 10.9497 10.8802 11.159C10.8954 11.159 10.9075 11.159 10.9195 11.159C11.5629 11.1591 12.2062 11.1589 12.8496 11.1594C12.9928 11.1595 13.1181 11.1158 13.2214 11.0143C13.2247 11.011 13.2289 11.0083 13.2401 10.9994C13.2303 11.0175 13.2253 11.0274 13.2197 11.037C12.8965 11.5997 12.5734 12.1625 12.2495 12.7249C12.2208 12.7747 12.1912 12.8249 12.1551 12.8694C12.1062 12.9295 12.0362 12.9506 11.9607 12.9506C11.788 12.9505 11.6154 12.9486 11.4427 12.9481C11.269 12.9477 11.0953 12.9481 10.9216 12.9481C10.9099 12.9481 10.8985 12.9481 10.8796 12.9481Z" fill="white"/><path fill-rule="evenodd" clip-rule="evenodd" d="M9.59051 11.1531C9.59051 11.7493 9.59051 12.3406 9.59051 12.9355C9.57746 12.9355 9.56621 12.9355 9.55489 12.9355C9.14006 12.9355 8.72494 12.9453 8.31049 12.9325C7.93579 12.921 7.65229 12.7459 7.49164 12.397C7.42309 12.2482 7.39024 12.0913 7.41386 11.9272C7.42091 11.8783 7.43629 11.8276 7.46036 11.7848C7.57474 11.5813 7.69376 11.3803 7.81001 11.1778C7.82111 11.1585 7.83319 11.1526 7.85456 11.1526C8.42209 11.1532 8.98961 11.1531 9.55706 11.1531C9.56734 11.1531 9.57761 11.1531 9.59051 11.1531Z" fill="white"/><path fill-rule="evenodd" clip-rule="evenodd" d="M11.1992 9.31642C11.7126 9.01927 12.2238 8.72332 12.7367 8.42647C12.7441 8.43817 12.7504 8.44762 12.7561 8.45744C12.9643 8.81444 13.1803 9.16717 13.3777 9.53002C13.5168 9.78547 13.5448 10.0591 13.4224 10.3351C13.3389 10.5235 13.2098 10.6719 13.0319 10.7766C12.9573 10.8205 12.8776 10.8448 12.7892 10.844C12.5619 10.8421 12.3345 10.8432 12.1071 10.8436C12.0891 10.8436 12.0768 10.8411 12.0664 10.8231C11.7806 10.3264 11.4941 9.83002 11.2078 9.33367C11.2054 9.32917 11.2033 9.32437 11.1992 9.31642Z" fill="white"/><path fill-rule="evenodd" clip-rule="evenodd" d="M7.25757 7.76985C7.31277 7.67273 7.36579 7.5795 7.41874 7.48635C7.57677 7.20848 7.72999 6.92768 7.89417 6.65348C8.03607 6.41655 8.24787 6.26895 8.52342 6.2271C8.73987 6.19425 8.94679 6.23153 9.13789 6.34245C9.21102 6.3849 9.27064 6.44048 9.31332 6.5151C9.42649 6.71325 9.54154 6.91035 9.65644 7.10753C9.66642 7.1247 9.66814 7.13715 9.65757 7.15575C9.37489 7.64948 9.09304 8.14365 8.81104 8.63783C8.80744 8.64413 8.80362 8.65035 8.79747 8.6607C8.28454 8.364 7.77267 8.06783 7.25757 7.76985Z" fill="white"/><path d="M22.6443 19.7603L18.2051 23.0672C18.2051 23.0672 17.7701 23.4026 17.6587 23.666C17.6277 23.7391 17.6243 23.8025 17.6355 23.8558C17.6633 23.9884 17.8168 24.0518 17.9347 23.9853L23.9649 20.5848L22.6443 19.7603Z" fill="white"/><path d="M15.6106 12.8639C15.6106 12.8639 9.36789 17.585 9.35402 17.5963C9.35402 17.5963 9.11252 17.8123 9.06752 17.8611C8.86299 18.0829 8.70699 18.3678 8.67647 18.7993C8.67474 18.8236 8.67302 18.848 8.67212 18.8733L16.7906 23.9397C16.8697 23.4526 17.1712 22.9518 17.6101 22.5952C17.8919 22.3662 23.797 17.9826 23.797 17.9826L15.6106 12.8639ZM16.9146 21.6595C16.721 21.8168 16.5506 21.9967 16.4078 22.1914L10.3318 18.3922C10.4203 18.2823 10.5203 18.1789 10.6322 18.088C10.6527 18.0713 10.709 18.0282 10.7925 17.965C10.8261 17.9395 10.8645 17.9105 10.9071 17.8784L16.9321 21.6457C16.926 21.6505 16.9186 21.6562 16.9146 21.6595ZM11.6625 17.3125L12.2948 16.84L18.3114 20.6022L17.6792 21.0746L11.6625 17.3125ZM19.6337 19.6219L13.6114 15.8621L15.445 14.4986L21.4679 18.2587L21.46 18.2645L19.6337 19.6219Z" fill="white"/></svg>

<svg class="color-immutable" width="30" height="30" viewBox="0 0 30 30" fill="none" xmlns="http://www.w3.org/2000/svg"><g clip-path="url(#a)"><path d="M30 0H0v30h30V0Z" fill="#2D327D"/><path d="M25.5 3c.825 0 1.5.675 1.5 1.5v21c0 .825-.675 1.5-1.5 1.5h-21c-.825 0-1.5-.675-1.5-1.5v-21C3 3.675 3.675 3 4.5 3h21Zm0-.375h-21A1.877 1.877 0 0 0 2.625 4.5v21c0 1.034.841 1.875 1.875 1.875h21a1.877 1.877 0 0 0 1.875-1.875v-21A1.877 1.877 0 0 0 25.5 2.625Z" fill="#fff"/><path fill-rule="evenodd" clip-rule="evenodd" d="m7.08 12.117-.045-.076-.988-1.7a.292.292 0 0 1 0-.316c.173-.295.344-.592.517-.889l.013-.025-.534-.315.002-.006h1.71c.018 0 .032.001.043.02l.863 1.48.013.026-.542-.313-.02.032-.968 1.677a.49.49 0 0 0-.06.385l.001.019H7.08ZM12.072 7.072l.54-.311c-.008.016-.011.024-.016.03l-.84 1.465c-.008.015-.017.023-.036.023l-1.712.006-.025-.002.535-.313-.019-.035-.955-1.667a.491.491 0 0 0-.314-.253c-.004-.001-.007-.004-.018-.01h.04L11.185 6c.058 0 .118 0 .176.009.082.012.138.065.179.136l.522.912.01.015ZM10.88 12.948v.616a.867.867 0 0 1-.008.002l-.015-.02-.84-1.46c-.01-.015-.013-.026-.003-.043l.857-1.494.01-.012v.622h1.968a.507.507 0 0 0 .372-.145l.02-.015-.021.038-.97 1.688c-.03.05-.059.1-.095.144-.049.06-.119.082-.194.082-.173 0-.346-.002-.518-.003H10.88Z" fill="#fff"/><path fill-rule="evenodd" clip-rule="evenodd" d="M9.59 11.153v1.782h-.035c-.415 0-.83.01-1.245-.003-.374-.011-.658-.186-.818-.535a.827.827 0 0 1-.078-.47.417.417 0 0 1 .046-.142c.115-.204.234-.405.35-.607.011-.02.023-.025.045-.025H9.59ZM11.2 9.316l1.537-.89c.007.012.013.022.02.031.207.357.423.71.62 1.073.14.255.168.53.045.805a.942.942 0 0 1-.39.442.461.461 0 0 1-.243.067c-.227-.002-.454 0-.682 0-.018 0-.03-.003-.04-.02-.286-.498-.573-.994-.86-1.49l-.008-.018ZM7.258 7.77l.16-.284c.159-.278.312-.558.476-.833a.859.859 0 0 1 .63-.426.92.92 0 0 1 .614.115.464.464 0 0 1 .175.173c.113.198.229.395.343.593.01.017.012.03.002.048-.283.493-.565.988-.847 1.482l-.014.023-1.54-.891Z" fill="#fff"/><path d="m22.644 19.76-4.439 3.307s-.435.336-.546.599a.313.313 0 0 0-.023.19c.027.132.18.196.299.13l6.03-3.401-1.32-.825ZM15.61 12.864l-6.256 4.732s-.241.216-.286.265a1.46 1.46 0 0 0-.392.938 2.064 2.064 0 0 0-.004.074l8.119 5.067c.079-.487.38-.988.82-1.345.28-.229 6.186-4.612 6.186-4.612l-8.186-5.12Zm1.305 8.796a2.887 2.887 0 0 0-.507.531l-6.076-3.799c.088-.11.188-.213.3-.304a8.532 8.532 0 0 1 .275-.21l6.025 3.768-.017.014Zm-5.252-4.348.632-.472 6.016 3.762-.632.473-6.016-3.762Zm7.97 2.31-6.022-3.76 1.834-1.363 6.023 3.76-.008.006-1.826 1.357Z" fill="#fff"/></g><defs><clipPath id="a"><path fill="#fff" d="M0 0h30v30H0z"/></clipPath></defs></svg>
